!!! OTL: Berkowitz6
!!! Chapter: 1
!!! Section: I
!!! Page: 6
!!! Mode: 
!!! Encoder: DJB
**kern
*staff1
*I"Piano
=1-
*clefG2
*k[f#c#]
*D:
*M3/4
2d/
4e/
=2
2f#/
4g/
=3
2a/
4b\
=4
2.a/
=5
4b\
4a/
4g/
=6
4a/
4g/
4f#/
=7
2g/
4f#/
=8
2.e/
=9
4f#/
4e/
4f#/
=10
2g/
4a/
=11
2b\
4a/
=12
4a/
4g/
4f#/
=13
!!linebreak:original
4g/
4a/
4b\
=14
4a/
4g/
4f#/
=15
4e/
4f#/
4e/
=16
2.d/
==
*-
